X: 406
T: The lovely lad
C:anon.
O:Ireland
B:Francis O'Neill: "The Dance Music of Ireland" (1907) no. 406
R:Single jig
Z:Transcribed by Frank Nordberg - http://www.musicaviva.com
F:http://www.musicaviva.com/abc/tunes/ireland/oneill-1001/oneill-1001-040
6.abc
m:Tn2 = (3n/o/n/ m/n/
M:6/8
L:1/8
K:D
(3A/B/c/|d2A A2G|F2D D2F|EFE =c2G|(E2=C) C2A|(TB2G) =c2A|(TB2G) A2G
|(TF2D) EFG|F2D D2:|
|:d|f2d Ade|f2d def|e2=c Gcd|e2=c cde|(Tf2d) g2e|(Ta2f) g2e|({g}f2)d
efg|f2d d2:|
W:
W:
W:  From Musica Viva - http://www.musicaviva.com
W:  the Internet center for free sheet music downloads.


